client/src/assets/images/number.svg

<svg cache-id="f7ff9d3d25f547b8b521991d409d95c1" id="eo0viI1bVxK1" xmlns="http://www.w3.org/2000/svg" xmlns:xlink="http://www.w3.org/1999/xlink" viewBox="-1 0 62 83" shape-rendering="geometricPrecision" text-rendering="geometricPrecision"><g transform="translate(1.403252 3.734764)" mask="url(#eo0viI1bVxK4)"><path d="M47.0038,27.247v-1.5h-1.2359l-.2364,1.213l1.4723.287Zm-3.997,20.5106l-1.4723-.2869-.3482,1.7869h1.8205v-1.5Zm9.8872,1.4726l1.0607-1.0607-1.0607,1.0607Zm0,7.0472l1.0207,1.0992.0204-.0189.0196-.0196-1.0607-1.0607ZM41.0084,57.6448v-1.5h-1.237l-.2356,1.2143l1.4726.2857ZM38.2736,71.7393l-1.4726-.2857-.0017.0093l1.4743.2764Zm-1.6829,2.7348l-.9146-1.189-.0232.0179-.0225.0188.9603,1.1523Zm-6.9421-.3156l-1.0607,1.0607.0197.0196.0203.0189l1.0207-1.0992Zm-1.3674-5.0487l1.4552.3638.01-.0398.0077-.0403-1.4729-.2837Zm2.2089-11.465l1.4729.2838.3436-1.7838h-1.8165v1.5Zm-11.3598,0v-1.5h-1.2279l-.2425,1.2037l1.4704.2963ZM16.2904,71.7393l-1.4705-.2963-.002.01-.0018.0099l1.4743.2764Zm-1.683,2.7348l-.9145-1.189-.0232.0179-.0225.0188.9602,1.1523Zm-6.73166-.4207l1.06065-1.0607-1.06065,1.0607ZM6.50836,69.1098l1.45521.3638.00994-.0398.00776-.0403-1.47291-.2837ZM8.7172,57.6448l1.4729.2838.3437-1.7838h-1.8166v1.5ZM2.19586,56.1723l1.06066-1.0607-1.06066,1.0607Zm0-6.9421l1.02067,1.0992.02035-.0189.01964-.0197-1.06066-1.0606Zm8.51984-1.4726v1.5h1.2359l.2364-1.2131-1.4723-.2869ZM14.7126,27.247l1.4723.2869.3482-1.7869h-1.8205v1.5ZM4.29951,25.7744l1.06067-1.0607-1.06067,1.0607Zm0-6.9421l1.02068,1.0992.02035-.0189.01964-.0196-1.06067-1.0607ZM16.7111,17.3598v1.5h1.2372l.2354-1.2147-1.4726-.2853ZM19.3407,3.79116l1.4726.28539.0017-.00896-1.4743-.27643ZM20.9184,1.0564l.9603,1.15234v-.00001L20.9184,1.0564Zm8.3095,5.36433l-1.4552-.3638-.0084.03329-.0068.03362l1.4704.29689ZM27.019,17.3598l-1.4703-.2969-.3628,1.7969h1.8331v-1.5Zm11.3598,0v1.5h1.2372l.2354-1.2147-1.4726-.2853ZM41.0084,3.79116l1.4726.28539.0017-.00896-1.4743-.27643ZM42.5861,1.0564l-.9146-1.188928-.0232.017854-.0225.018746.9603,1.152328Zm7.0473.42073L48.5727,2.53779l.0183.01828.0189.01765l1.0235-1.09659Zm1.4725,4.9436l-1.4552-.36381-.01.04002-.0078.04052l1.473.28327ZM49.0023,17.3598l-1.473-.2833-.343,1.7833h1.816v-1.5Zm5.9954,8.5198l1.0207,1.0992.0203-.0189.0196-.0197-1.0606-1.0606ZM36.4855,27.247l1.4723.2869.3482-1.7869h-1.8205v1.5Zm-11.3598,0v-1.5h-1.2297l-.2411,1.2058l1.4708.2942ZM21.0236,47.7576l-1.4709-.2942-.3588,1.7942h1.8297v-1.5Zm11.4649,0v1.5h1.2359l.2364-1.2131-1.4723-.2869ZM45.5315,26.96l-3.997,20.5107l2.9446.5738l3.997-20.5106-2.9446-.5739ZM43.0068,49.2576h6.311v-3h-6.311v3Zm6.311,0c1.0092,0,1.8184.336,2.5156,1.0332l2.1213-2.1213c-1.2662-1.2662-2.8412-1.9119-4.6369-1.9119v3Zm2.5156,1.0332c.6972.6973,1.0332,1.5064,1.0332,2.5156h3c0-1.7957-.6457-3.3707-1.9119-4.6369l-2.1213,2.1213Zm1.0332,2.5156c0,.9162-.3196,1.6968-1.0332,2.4104l2.1213,2.1213c1.2498-1.2498,1.9119-2.7833,1.9119-4.5317h-3Zm-.9932,2.3718c-.6903.641-1.5122.9666-2.5556.9666v3c1.7615,0,3.3238-.586,4.5969-1.7682l-2.0413-2.1984Zm-2.5556.9666h-8.3094v3h8.3094v-3Zm-9.782,1.2143L36.8011,71.4536l2.945.5714l2.7348-14.0945-2.9451-.5714ZM36.7993,71.4629c-.1418.7563-.5016,1.3441-1.1232,1.8222l1.8291,2.3779c1.2017-.9243,1.9638-2.1596,2.2427-3.6472l-2.9486-.5529Zm-1.1689,1.8589c-.5315.4429-1.2275.7041-2.1952.7041v3c1.5567,0,2.9643-.44,4.1157-1.3995l-1.9205-2.3046Zm-2.1952.7041c-1.2256,0-2.1037-.3516-2.7659-.9666l-2.0414,2.1984c1.3012,1.2082,2.9475,1.7682,4.8073,1.7682v-3Zm-2.7259-.928c-.6821-.682-1.0333-1.5192-1.0333-2.6208h-3c0,1.8436.6305,3.4607,1.9119,4.7421l2.1214-2.1213ZM29.676,70.4771c0-.6176.0382-.9148.0604-1.0035l-2.9104-.7277c-.118.4723-.15,1.0867-.15,1.7312h3Zm.0781-1.0836L31.963,57.9286l-2.9458-.5676-2.2089,11.465l2.9458.5675Zm.736-13.2487h-11.3598v3h11.3598v-3ZM17.6599,57.3485l-2.84,14.0945l2.9409.5926l2.84-14.0945-2.9409-.5926ZM14.8161,71.4629c-.1418.7563-.5017,1.3441-1.1232,1.8222L15.522,75.663c1.2016-.9243,1.9637-2.1596,2.2427-3.6472l-2.9486-.5529Zm-1.1689,1.8589c-.5649.4706-1.2045.7041-1.9849.7041v3c1.4636,0,2.7873-.4677,3.9054-1.3995l-1.9205-2.3046Zm-1.9849.7041c-1.1933,0-2.058-.3653-2.72591-1.0332L6.81507,75.114c1.29552,1.2955,2.95519,1.9119,4.84723,1.9119v-3ZM8.93639,72.9927c-.6679-.6679-1.03322-1.5326-1.03322-2.7259h-3c0,1.892.61639,3.5517,1.9119,4.8472l2.12132-2.1213ZM7.90317,70.2668c0-.4407.03357-.6859.0604-.7932l-2.91043-.7277c-.11341.4537-.14997.9798-.14997,1.5209h3Zm.0781-.8733L10.1901,57.9286L7.24429,57.361L5.03544,68.826l2.94583.5675ZM8.7172,56.1448h-2.94512v3h2.94512v-3Zm-2.94512,0c-1.00916,0-1.81836-.336-2.51556-1.0332L1.1352,57.2329c1.2662,1.2662,2.84115,1.9119,4.63688,1.9119v-3ZM3.25652,55.1116c-.69721-.6972-1.03322-1.5064-1.03322-2.5156h-3.000003c0,1.7958.645691,3.3707,1.911903,4.6369l2.12132-2.1213ZM2.2233,52.596c0-.9126.31525-1.6371.99323-2.2666L1.17518,48.131c-1.285436,1.1936-1.951883,2.713-1.951883,4.465h3.000003Zm1.03322-2.3052c.6972-.6972,1.5064-1.0332,2.51556-1.0332v-3c-1.79573,0-3.37068.6457-4.63688,1.9119l2.12132,2.1213Zm2.51556-1.0332h4.94362v-3h-4.94362v3ZM12.188,48.0445l3.9969-20.5106-2.9446-.5739L9.24337,47.4707l2.94463.5738ZM14.7126,25.747h-6.83686v3h6.83686v-3Zm-6.83686,0c-1.00916,0-1.81836-.3361-2.51556-1.0333L3.23885,26.835c1.26621,1.2663,2.84116,1.912,4.63689,1.912v-3ZM5.36018,24.7137c-.69721-.6972-1.03323-1.5064-1.03323-2.5155h-3c0,1.7957.6457,3.3706,1.9119,4.6368l2.12133-2.1213ZM4.32695,22.1982c0-.9126.31526-1.6371.99324-2.2667L3.27884,17.7331c-1.28544,1.1936-1.95189,2.713-1.95189,4.4651h3ZM5.36018,19.893c.6972-.6972,1.5064-1.0332,2.51556-1.0332v-3c-1.79573,0-3.37068.6456-4.63689,1.9119L5.36018,19.893Zm2.51556-1.0332h8.83536v-3h-8.83536v3ZM18.1837,17.6451L20.8133,4.07654l-2.9452-.57077L15.2385,17.0744l2.9452.5707ZM20.815,4.06759c.149-.79476.5022-1.39095,1.0637-1.85885l-1.9206-2.304668c-1.1214.934532-1.82,2.161518-2.0917,3.610648l2.9486.55287Zm1.0637-1.85886c.5315-.44293,1.2275-.70416,2.1952-.70416v-3c-1.5567,0-2.9643.43999-4.1158,1.399506L21.8787,2.20873Zm2.1952-.70416c1.1933,0,2.058.36532,2.7259,1.03322l2.1214-2.121319c-1.2956-1.295513-2.9552-1.911901-4.8473-1.911901v3Zm2.7259,1.03322c.682.68201,1.0333,1.51922,1.0333,2.62075h3c0-1.84361-.6305-3.46067-1.9119-4.742069L26.7998,2.53779Zm1.0333,2.62075c0,.53027-.0362.8015-.0604.89839l2.9104.7276c.116-.46408.15-1.03431.15-1.62599h-3Zm-.0756.9653L25.5487,17.0629l2.9407.5937L30.6982,6.71763l-2.9407-.59379ZM27.019,18.8598h11.3598v-3h-11.3598v3Zm12.8324-1.2147L42.481,4.07654l-2.9452-.57077L36.9062,17.0744l2.9452.5707ZM42.4827,4.06759c.149-.79476.5022-1.39095,1.0637-1.85885l-1.9206-2.304668c-1.1214.934532-1.82,2.161518-2.0918,3.610648l2.9487.55287Zm1.018-1.82225c.6235-.47964,1.3805-.74077,2.3461-.74077v-3c-1.5589,0-2.9756.44009-4.1753,1.362902L43.5007,2.24534Zm2.3461-.74077c1.1933,0,2.058.36532,2.7259,1.03322L50.694,0.416471c-1.2955-1.295513-2.9552-1.911901-4.8472-1.911901v3Zm2.7631,1.06915c.7241.67588,1.1012,1.52949,1.1012,2.69h3c0-1.92486-.6748-3.59564-2.0543-4.883173L48.6099,2.57372Zm1.1012,2.69c0,.44063-.0336.68586-.0604.7932l2.9104.72763c.1134-.45364.15-.97975.15-1.52083h-3Zm-.0782.87374L47.5293,17.0765l2.946.5665L52.5789,6.704l-2.946-.56654ZM49.0023,18.8598h2.4192v-3h-2.4192v3Zm2.4192,0c1.0091,0,1.8183.336,2.5155,1.0332l2.1213-2.1213c-1.2662-1.2662-2.8411-1.9119-4.6368-1.9119v3ZM53.937,19.893c.6972.6972,1.0332,1.5064,1.0332,2.5155h3c0-1.7957-.6457-3.3706-1.9119-4.6368L53.937,19.893Zm1.0332,2.5155c0,.9163-.3196,1.6968-1.0332,2.4104l2.1213,2.1213c1.2499-1.2498,1.9119-2.7832,1.9119-4.5317h-3Zm-.9932,2.3719c-.6903.6409-1.5122.9666-2.5555.9666v3c1.7615,0,3.3237-.586,4.5969-1.7682L53.977,24.7804Zm-2.5555.9666h-4.4177v3h4.4177v-3Zm-14.936,0h-11.3598v3h11.3598v-3ZM23.6549,26.9528L19.5527,47.4634l2.9418.5884l4.1021-20.5107-2.9417-.5883ZM21.0236,49.2576h11.4649v-3h-11.4649v3Zm12.9372-1.2131l3.997-20.5106-2.9446-.5739-3.997,20.5107l2.9446.5738Z" fill="#00aee9"/><mask id="eo0viI1bVxK4" mask-type="luminance" x="-150%" y="-150%" height="400%" width="400%"><rect width="59" height="80" rx="0" ry="0" transform="translate(-1-2)" fill="#fff"/><path d="M47.0038,27.247l-3.997,20.5106h6.311c1.4024,0,2.5945.4909,3.5762,1.4726s1.4726,2.1738,1.4726,3.5762c0,1.3323-.4909,2.4893-1.4726,3.471-.9817.9116-2.1738,1.3674-3.5762,1.3674h-8.3094L38.2736,71.7393c-.2104,1.122-.7713,2.0336-1.6829,2.7348-.8415.7012-1.8933,1.0518-3.1555,1.0518-1.5427,0-2.8049-.4558-3.7866-1.3674-.9817-.9817-1.4726-2.2088-1.4726-3.6814c0-.6311.0351-1.0869.1052-1.3673l2.2089-11.465h-11.3598L16.2904,71.7393c-.2104,1.122-.7714,2.0336-1.683,2.7348-.8414.7012-1.8231,1.0518-2.9451,1.0518-1.5427,0-2.80486-.4908-3.78657-1.4725s-1.47256-2.2439-1.47256-3.7866c0-.4909.03506-.8766.10519-1.157L8.7172,57.6448h-2.94512c-1.40244,0-2.59452-.4908-3.57622-1.4725s-1.472565-2.1738-1.472565-3.5763c0-1.3323.490855-2.4542,1.472565-3.3658.9817-.9817,2.17378-1.4726,3.57622-1.4726h4.94362L14.7126,27.247h-6.83687c-1.40243,0-2.59451-.4909-3.57621-1.4726s-1.47257-2.1738-1.47257-3.5762c0-1.3323.49086-2.4543,1.47257-3.3659.9817-.9817,2.17378-1.4725,3.57621-1.4725h8.83537L19.3407,3.79116c.2103-1.12195.7363-2.03354,1.5777-2.73476.8415-.701218,1.8933-1.05183,3.1555-1.05183c1.5427,0,2.8049.490854,3.7866,1.47256s1.4726,2.20884,1.4726,3.68141c0,.56097-.0351.98171-.1052,1.26219L27.019,17.3598h11.3598L41.0084,3.79116c.2103-1.12195.7362-2.03354,1.5777-2.73476.9116-.701218,1.9985-1.05183,3.2607-1.05183c1.5427,0,2.8048.490854,3.7866,1.47256c1.0518.98171,1.5777,2.2439,1.5777,3.78659c0,.49085-.0351.87653-.1052,1.15701L49.0023,17.3598h2.4192c1.4024,0,2.5945.4908,3.5762,1.4725s1.4725,2.1738,1.4725,3.5762c0,1.3324-.4908,2.4894-1.4725,3.4711-.9817.9116-2.1738,1.3674-3.5762,1.3674h-4.4177Zm-10.5183,0h-11.3598L21.0236,47.7576h11.4649l3.997-20.5106Z" transform="translate(.000001 0)"/></mask></g></svg>

<svg width="57" height="80" viewBox="0 0 57 76" fill="none" xmlns="http://www.w3.org/2000/svg">
<mask id="path-1-outside-1_155_17341" maskUnits="userSpaceOnUse" x="-1" y="-2" width="59" height="80" fill="black">
<rect fill="white" x="-1" y="-2" width="59" height="80"/>
<path d="M47.0038 27.247L43.0068 47.7576H49.3178C50.7202 47.7576 51.9123 48.2485 52.894 49.2302C53.8757 50.2119 54.3666 51.404 54.3666 52.8064C54.3666 54.1387 53.8757 55.2957 52.894 56.2774C51.9123 57.189 50.7202 57.6448 49.3178 57.6448H41.0084L38.2736 71.7393C38.0632 72.8613 37.5023 73.7729 36.5907 74.4741C35.7492 75.1753 34.6974 75.5259 33.4352 75.5259C31.8925 75.5259 30.6303 75.0701 29.6486 74.1585C28.6669 73.1768 28.176 71.9497 28.176 70.4771C28.176 69.846 28.2111 69.3902 28.2812 69.1098L30.4901 57.6448H19.1303L16.2904 71.7393C16.08 72.8613 15.519 73.7729 14.6074 74.4741C13.766 75.1753 12.7843 75.5259 11.6623 75.5259C10.1196 75.5259 8.85744 75.0351 7.87573 74.0534C6.89403 73.0716 6.40317 71.8095 6.40317 70.2668C6.40317 69.7759 6.43823 69.3902 6.50836 69.1098L8.7172 57.6448H5.77208C4.36964 57.6448 3.17756 57.154 2.19586 56.1723C1.21415 55.1905 0.723295 53.9985 0.723295 52.596C0.723295 51.2637 1.21415 50.1418 2.19586 49.2302C3.17756 48.2485 4.36964 47.7576 5.77208 47.7576H10.7157L14.7126 27.247H7.87573C6.4733 27.247 5.28122 26.7561 4.29952 25.7744C3.31781 24.7927 2.82695 23.6006 2.82695 22.1982C2.82695 20.8659 3.31781 19.7439 4.29952 18.8323C5.28122 17.8506 6.4733 17.3598 7.87573 17.3598H16.7111L19.3407 3.79116C19.551 2.66921 20.077 1.75762 20.9184 1.0564C21.7599 0.355182 22.8117 0.00457014 24.0739 0.00457014C25.6166 0.00457014 26.8788 0.495424 27.8605 1.47713C28.8422 2.45884 29.3331 3.68597 29.3331 5.15854C29.3331 5.71951 29.298 6.14025 29.2279 6.42073L27.019 17.3598H38.3788L41.0084 3.79116C41.2187 2.66921 41.7446 1.75762 42.5861 1.0564C43.4977 0.355182 44.5846 0.00457014 45.8468 0.00457014C47.3895 0.00457014 48.6516 0.495424 49.6334 1.47713C50.6852 2.45884 51.2111 3.72103 51.2111 5.26372C51.2111 5.75457 51.176 6.14025 51.1059 6.42073L49.0023 17.3598H51.4215C52.8239 17.3598 54.016 17.8506 54.9977 18.8323C55.9794 19.814 56.4702 21.0061 56.4702 22.4085C56.4702 23.7409 55.9794 24.8979 54.9977 25.8796C54.016 26.7912 52.8239 27.247 51.4215 27.247H47.0038ZM36.4855 27.247H25.1257L21.0236 47.7576H32.4885L36.4855 27.247Z"/>
</mask>
<path d="M47.0038 27.247V25.747H45.7679L45.5315 26.96L47.0038 27.247ZM43.0068 47.7576L41.5345 47.4707L41.1863 49.2576H43.0068V47.7576ZM52.894 49.2302L53.9547 48.1695L52.894 49.2302ZM52.894 56.2774L53.9147 57.3766L53.9351 57.3577L53.9547 57.3381L52.894 56.2774ZM41.0084 57.6448V56.1448H39.7714L39.5358 57.3591L41.0084 57.6448ZM38.2736 71.7393L36.801 71.4536L36.7993 71.4629L38.2736 71.7393ZM36.5907 74.4741L35.6761 73.2851L35.6529 73.303L35.6304 73.3218L36.5907 74.4741ZM29.6486 74.1585L28.5879 75.2192L28.6076 75.2388L28.6279 75.2577L29.6486 74.1585ZM28.2812 69.1098L29.7364 69.4736L29.7464 69.4338L29.7541 69.3935L28.2812 69.1098ZM30.4901 57.6448L31.963 57.9286L32.3066 56.1448H30.4901V57.6448ZM19.1303 57.6448V56.1448H17.9024L17.6599 57.3485L19.1303 57.6448ZM16.2904 71.7393L14.8199 71.443L14.8179 71.453L14.8161 71.4629L16.2904 71.7393ZM14.6074 74.4741L13.6929 73.2851L13.6697 73.303L13.6472 73.3218L14.6074 74.4741ZM7.87574 74.0534L8.93639 72.9927L7.87574 74.0534ZM6.50836 69.1098L7.96357 69.4736L7.97351 69.4338L7.98127 69.3935L6.50836 69.1098ZM8.7172 57.6448L10.1901 57.9286L10.5338 56.1448H8.7172V57.6448ZM2.19586 56.1723L3.25652 55.1116L2.19586 56.1723ZM2.19586 49.2302L3.21653 50.3294L3.23688 50.3105L3.25652 50.2908L2.19586 49.2302ZM10.7157 47.7576V49.2576H11.9516L12.188 48.0445L10.7157 47.7576ZM14.7126 27.247L16.1849 27.5339L16.5331 25.747H14.7126V27.247ZM4.29951 25.7744L5.36018 24.7137L4.29951 25.7744ZM4.29951 18.8323L5.32019 19.9315L5.34054 19.9126L5.36018 19.893L4.29951 18.8323ZM16.7111 17.3598V18.8598H17.9483L18.1837 17.6451L16.7111 17.3598ZM19.3407 3.79116L20.8133 4.07655L20.815 4.06759L19.3407 3.79116ZM20.9184 1.0564L21.8787 2.20874L21.8787 2.20873L20.9184 1.0564ZM29.2279 6.42073L27.7727 6.05693L27.7643 6.09022L27.7575 6.12384L29.2279 6.42073ZM27.019 17.3598L25.5487 17.0629L25.1859 18.8598H27.019V17.3598ZM38.3788 17.3598V18.8598H39.616L39.8514 17.6451L38.3788 17.3598ZM41.0084 3.79116L42.481 4.07655L42.4827 4.06759L41.0084 3.79116ZM42.5861 1.0564L41.6715 -0.132528L41.6483 -0.114674L41.6258 -0.0959282L42.5861 1.0564ZM49.6334 1.47713L48.5727 2.53779L48.591 2.55607L48.6099 2.57372L49.6334 1.47713ZM51.1059 6.42073L49.6507 6.05692L49.6407 6.09694L49.6329 6.13746L51.1059 6.42073ZM49.0023 17.3598L47.5293 17.0765L47.1863 18.8598H49.0023V17.3598ZM54.9977 25.8796L56.0184 26.9788L56.0387 26.9599L56.0583 26.9402L54.9977 25.8796ZM36.4855 27.247L37.9578 27.5339L38.306 25.747H36.4855V27.247ZM25.1257 27.247V25.747H23.896L23.6549 26.9528L25.1257 27.247ZM21.0236 47.7576L19.5527 47.4634L19.1939 49.2576H21.0236V47.7576ZM32.4885 47.7576V49.2576H33.7244L33.9608 48.0445L32.4885 47.7576ZM45.5315 26.96L41.5345 47.4707L44.4791 48.0445L48.4761 27.5339L45.5315 26.96ZM43.0068 49.2576H49.3178V46.2576H43.0068V49.2576ZM49.3178 49.2576C50.327 49.2576 51.1362 49.5936 51.8334 50.2908L53.9547 48.1695C52.6885 46.9033 51.1135 46.2576 49.3178 46.2576V49.2576ZM51.8334 50.2908C52.5306 50.9881 52.8666 51.7972 52.8666 52.8064H55.8666C55.8666 51.0107 55.2209 49.4357 53.9547 48.1695L51.8334 50.2908ZM52.8666 52.8064C52.8666 53.7226 52.547 54.5032 51.8334 55.2168L53.9547 57.3381C55.2045 56.0883 55.8666 54.5548 55.8666 52.8064H52.8666ZM51.8734 55.1782C51.1831 55.8192 50.3612 56.1448 49.3178 56.1448V59.1448C51.0793 59.1448 52.6416 58.5588 53.9147 57.3766L51.8734 55.1782ZM49.3178 56.1448H41.0084V59.1448H49.3178V56.1448ZM39.5358 57.3591L36.8011 71.4536L39.7461 72.025L42.4809 57.9305L39.5358 57.3591ZM36.7993 71.4629C36.6575 72.2192 36.2977 72.807 35.6761 73.2851L37.5052 75.663C38.7069 74.7387 39.469 73.5034 39.7479 72.0158L36.7993 71.4629ZM35.6304 73.3218C35.0989 73.7647 34.4029 74.0259 33.4352 74.0259V77.0259C34.9919 77.0259 36.3995 76.5859 37.5509 75.6264L35.6304 73.3218ZM33.4352 74.0259C32.2096 74.0259 31.3315 73.6743 30.6693 73.0593L28.6279 75.2577C29.9291 76.4659 31.5754 77.0259 33.4352 77.0259V74.0259ZM30.7093 73.0979C30.0272 72.4159 29.676 71.5787 29.676 70.4771H26.676C26.676 72.3207 27.3065 73.9378 28.5879 75.2192L30.7093 73.0979ZM29.676 70.4771C29.676 69.8595 29.7142 69.5623 29.7364 69.4736L26.826 68.7459C26.708 69.2182 26.676 69.8326 26.676 70.4771H29.676ZM29.7541 69.3935L31.963 57.9286L29.0172 57.361L26.8083 68.826L29.7541 69.3935ZM30.4901 56.1448H19.1303V59.1448H30.4901V56.1448ZM17.6599 57.3485L14.8199 71.443L17.7608 72.0356L20.6008 57.9411L17.6599 57.3485ZM14.8161 71.4629C14.6743 72.2192 14.3144 72.807 13.6929 73.2851L15.522 75.663C16.7236 74.7387 17.4857 73.5034 17.7647 72.0158L14.8161 71.4629ZM13.6472 73.3218C13.0823 73.7924 12.4427 74.0259 11.6623 74.0259V77.0259C13.1259 77.0259 14.4496 76.5582 15.5677 75.6264L13.6472 73.3218ZM11.6623 74.0259C10.469 74.0259 9.6043 73.6606 8.93639 72.9927L6.81507 75.114C8.11059 76.4095 9.77026 77.0259 11.6623 77.0259V74.0259ZM8.93639 72.9927C8.26849 72.3248 7.90317 71.4601 7.90317 70.2668H4.90317C4.90317 72.1588 5.51956 73.8185 6.81507 75.114L8.93639 72.9927ZM7.90317 70.2668C7.90317 69.8261 7.93674 69.5809 7.96357 69.4736L5.05314 68.7459C4.93973 69.1996 4.90317 69.7257 4.90317 70.2668H7.90317ZM7.98127 69.3935L10.1901 57.9286L7.24429 57.361L5.03544 68.826L7.98127 69.3935ZM8.7172 56.1448H5.77208V59.1448H8.7172V56.1448ZM5.77208 56.1448C4.76292 56.1448 3.95372 55.8088 3.25652 55.1116L1.1352 57.2329C2.4014 58.4991 3.97635 59.1448 5.77208 59.1448V56.1448ZM3.25652 55.1116C2.55931 54.4144 2.2233 53.6052 2.2233 52.596H-0.776703C-0.776703 54.3918 -0.131012 55.9667 1.1352 57.2329L3.25652 55.1116ZM2.2233 52.596C2.2233 51.6834 2.53855 50.9589 3.21653 50.3294L1.17518 48.131C-0.110256 49.3246 -0.776703 50.844 -0.776703 52.596H2.2233ZM3.25652 50.2908C3.95372 49.5936 4.76292 49.2576 5.77208 49.2576V46.2576C3.97635 46.2576 2.4014 46.9033 1.1352 48.1695L3.25652 50.2908ZM5.77208 49.2576H10.7157V46.2576H5.77208V49.2576ZM12.188 48.0445L16.1849 27.5339L13.2403 26.96L9.24337 47.4707L12.188 48.0445ZM14.7126 25.747H7.87574V28.747H14.7126V25.747ZM7.87574 25.747C6.86658 25.747 6.05738 25.4109 5.36018 24.7137L3.23885 26.835C4.50506 28.1013 6.08001 28.747 7.87574 28.747V25.747ZM5.36018 24.7137C4.66297 24.0165 4.32695 23.2073 4.32695 22.1982H1.32695C1.32695 23.9939 1.97265 25.5688 3.23885 26.835L5.36018 24.7137ZM4.32695 22.1982C4.32695 21.2856 4.64221 20.5611 5.32019 19.9315L3.27884 17.7331C1.9934 18.9267 1.32695 20.4461 1.32695 22.1982H4.32695ZM5.36018 19.893C6.05738 19.1958 6.86658 18.8598 7.87574 18.8598V15.8598C6.08001 15.8598 4.50506 16.5054 3.23885 17.7717L5.36018 19.893ZM7.87574 18.8598H16.7111V15.8598H7.87574V18.8598ZM18.1837 17.6451L20.8133 4.07654L17.8681 3.50577L15.2385 17.0744L18.1837 17.6451ZM20.815 4.06759C20.964 3.27283 21.3172 2.67664 21.8787 2.20874L19.9581 -0.0959282C18.8367 0.838604 18.1381 2.06559 17.8664 3.51472L20.815 4.06759ZM21.8787 2.20873C22.4102 1.7658 23.1062 1.50457 24.0739 1.50457V-1.49543C22.5172 -1.49543 21.1096 -1.05544 19.9581 -0.0959244L21.8787 2.20873ZM24.0739 1.50457C25.2672 1.50457 26.1319 1.86989 26.7998 2.53779L28.9212 0.416471C27.6256 -0.879042 25.966 -1.49543 24.0739 -1.49543V1.50457ZM26.7998 2.53779C27.4818 3.2198 27.8331 4.05701 27.8331 5.15854H30.8331C30.8331 3.31493 30.2026 1.69787 28.9212 0.416471L26.7998 2.53779ZM27.8331 5.15854C27.8331 5.68881 27.7969 5.96004 27.7727 6.05693L30.6831 6.78453C30.7991 6.32045 30.8331 5.75022 30.8331 5.15854H27.8331ZM27.7575 6.12384L25.5487 17.0629L28.4894 17.6566L30.6982 6.71763L27.7575 6.12384ZM27.019 18.8598H38.3788V15.8598H27.019V18.8598ZM39.8514 17.6451L42.481 4.07654L39.5358 3.50577L36.9062 17.0744L39.8514 17.6451ZM42.4827 4.06759C42.6317 3.27283 42.9849 2.67664 43.5464 2.20874L41.6258 -0.0959282C40.5044 0.838604 39.8058 2.06559 39.534 3.51472L42.4827 4.06759ZM43.5007 2.24534C44.1242 1.7657 44.8812 1.50457 45.8468 1.50457V-1.49543C44.2879 -1.49543 42.8712 -1.05534 41.6715 -0.132528L43.5007 2.24534ZM45.8468 1.50457C47.0401 1.50457 47.9048 1.86989 48.5727 2.53779L50.694 0.416471C49.3985 -0.879042 47.7388 -1.49543 45.8468 -1.49543V1.50457ZM48.6099 2.57372C49.334 3.2496 49.7111 4.10321 49.7111 5.26372H52.7111C52.7111 3.33886 52.0363 1.66808 50.6568 0.380547L48.6099 2.57372ZM49.7111 5.26372C49.7111 5.70435 49.6775 5.94958 49.6507 6.05692L52.5611 6.78455C52.6745 6.33091 52.7111 5.8048 52.7111 5.26372H49.7111ZM49.6329 6.13746L47.5293 17.0765L50.4753 17.643L52.5789 6.704L49.6329 6.13746ZM49.0023 18.8598H51.4215V15.8598H49.0023V18.8598ZM51.4215 18.8598C52.4306 18.8598 53.2398 19.1958 53.937 19.893L56.0583 17.7717C54.7921 16.5055 53.2172 15.8598 51.4215 15.8598V18.8598ZM53.937 19.893C54.6342 20.5902 54.9702 21.3994 54.9702 22.4085H57.9702C57.9702 20.6128 57.3245 19.0379 56.0583 17.7717L53.937 19.893ZM54.9702 22.4085C54.9702 23.3248 54.6506 24.1053 53.937 24.8189L56.0583 26.9402C57.3082 25.6904 57.9702 24.157 57.9702 22.4085H54.9702ZM53.977 24.7804C53.2867 25.4213 52.4648 25.747 51.4215 25.747V28.747C53.183 28.747 54.7452 28.161 56.0184 26.9788L53.977 24.7804ZM51.4215 25.747H47.0038V28.747H51.4215V25.747ZM36.4855 25.747H25.1257V28.747H36.4855V25.747ZM23.6549 26.9528L19.5527 47.4634L22.4945 48.0518L26.5966 27.5411L23.6549 26.9528ZM21.0236 49.2576H32.4885V46.2576H21.0236V49.2576ZM33.9608 48.0445L37.9578 27.5339L35.0132 26.96L31.0162 47.4707L33.9608 48.0445Z" fill="#00AEE9" mask="url(#path-1-outside-1_155_17341)"/>
</svg>
